!!!OTL@@FUR: Duc' mi d&icirc;s che no &agrave;i mor&ocirc;sis
!!!OTL@IT: Tutti mi dicono she non ho fidanzate
!!!OTL@EN: They tell me I'm not a lover
**kern
*clefG2
*k[f#]
*G:
*M4/4
*MM60
*>[A,A]
*>A
8.g
16a
=1
4b
4.dd
8b
12dd
12cc
12b
=2
4a
4a
4r
8.a
16b
=3
4cc
4.dd
8dd
12ee
12dd
12cc
=4
[2b
8b]
8r
8.g
16a
=5
4b
4.dd
8b
12dd
12cc
12b
=6
4a
4a
4r
8.a
16b
=7
4cc
4.dd
8dd
12ee
12dd
12cc
=8
[2b
8b]
8r
==:|!
*-
!!!ARE: Friuli
!!!ENC: Kelly Leistikow
!!!END: 2002/03/07
!!!ref: @{OTL@@FUR}/@{OTL@EN}
